X: 2314
M: 6/8
L: 1/8
K: G
uD |\
dBd dBd | gag gfe | dBd dcB | AFD D2 B/c/ |\
dBd dBd | gag gfe |
dcB AGF | G3  G2 B/c/ |\
dBd dBd | gag gfe | dBd dcB | AFD D2 B/c/ |\
dBd ece | fdf gfe | dcB Agf | g3  g2 |]


